X: 49
T: Sk\aanevalsen
O: Sk\aane
R: waltz
S: http://www.folksweden.com/files/aa.pdf [Tim Rued]
Z: 2021 John Chambers <jc:trillian.mit.edu>
M: 3/4
L: 1/8
K: D
|: "D"D2 FA FA | D2 FA FA | DF Ad fe | dc BA GF | "A7"E2 AE A2 | [E2A,2] AE A2 | EA ce gf | ed cB AF |
|  "D"D2 FA FA | D2 FA FA | DF Ad fe | dc BA GF | "A7"E2 AE A2 | [E2A,2] a^g a2 | ^ga ba ef |1 "D"d4 A2 :|2"D"d4 {A}de ||
|: "D"f2-f2 g2 | f2-f2 e2 | ed cd fd | A4 F2 | "G"G2 G3 G | "A7"E4 G2 | "D"GF F2 A2 | D3 F Ad |
|  "D"f2-f2 g2 | f2-f2 e2 | ed cd fd | A4 F2 | "G"G2 eG eG | "D"F2 dF dF | "A7"E2 c2 c2 |1 "D"d4 {A}de :|2 "D"d6 :|
